symbols/web/remove_moderator/materialsymbolsrounded/remove_moderator_wght500grad200fill1_24px.svg

<svg xmlns="http://www.w3.org/2000/svg" height="24" width="24"><path d="M19.475 16.75 6.05 3.3l4.975-1.875q.475-.175.987-.175.513 0 .988.175L19 3.7q.825.325 1.338 1.037.512.713.512 1.613v4.75q0 1.5-.362 2.962-.363 1.463-1.013 2.688Zm-.425 6.025L16.7 20.45q-.825.775-1.813 1.338-.987.562-2.112.937-.175.05-.362.075-.188.025-.413.025-.225 0-.412-.025-.188-.025-.363-.075-3.525-1.15-5.8-4.388Q3.15 15.1 3.15 11.1V6.9L1.2 4.95q-.4-.4-.4-.925t.4-.925q.4-.4.938-.4.537 0 .937.4l17.85 17.825q.4.4.4.925t-.4.925q-.4.4-.937.4-.538 0-.938-.4Z"/></svg>

<svg xmlns="http://www.w3.org/2000/svg" height="24" width="24"><path d="M19.475 16.75 6.05 3.3 11.025 1.425Q11.5 1.25 12.012 1.25Q12.525 1.25 13 1.425L19 3.7Q19.825 4.025 20.338 4.737Q20.85 5.45 20.85 6.35V11.1Q20.85 12.6 20.488 14.062Q20.125 15.525 19.475 16.75ZM19.05 22.775 16.7 20.45Q15.875 21.225 14.887 21.788Q13.9 22.35 12.775 22.725Q12.6 22.775 12.413 22.8Q12.225 22.825 12 22.825Q11.775 22.825 11.588 22.8Q11.4 22.775 11.225 22.725Q7.7 21.575 5.425 18.337Q3.15 15.1 3.15 11.1V6.9L1.2 4.95Q0.8 4.55 0.8 4.025Q0.8 3.5 1.2 3.1Q1.6 2.7 2.138 2.7Q2.675 2.7 3.075 3.1L20.925 20.925Q21.325 21.325 21.325 21.85Q21.325 22.375 20.925 22.775Q20.525 23.175 19.988 23.175Q19.45 23.175 19.05 22.775Z"/></svg>
